X:1
T:Yardbird Suite
T:Yardbird Suite
C:Charlie Parker (1920-1955)
Z:All Rights Reserved
L:1/8
Q:1/4=120
M:4/4
K:C
V:1 treble nm="MusicXML Part"
%%MIDI program 0
%%MIDI control 7 102
%%MIDI control 10 64
V:1
"Cmaj7" z c3 G2 A2 |"Fm7" _B3"Bb7" _A- A_EFG- |"C7" G4"Bb7" G3 E- |"A7" E3 E DEDF |"D7" ECzC- C4 |1 %5
 z2"G7" z D z EFG- |"Em7" G3"A7" A- AEFG- |"Dm7" G6"G7" z2 :|2 z2"G7" z C ECEC- ||"Cmaj7" C8 | %10
"Cmaj7" z4"B7" z2 (3G/A/G/^F |"Em7" E3 ^F G E2 A |"Fdim7" z A"B7" A6 |"Em7" GAG^F EB,C^C- | %14
"A7" C4 z2 z _B, |"Dm7" A,3 A z EFG |"Edim7" z G3"A7" FED^C |"D7" EA,zE- E3 A, |"Dm7" DEFG"G7" z4 | %19
"Cmaj7" z c3 G2 A2 |"Fm7" _B3"Bb7" _A- A_EFG- |"C7" G4"Bb7" G3 E- |"A7" E3 E DEDF |"D7" ECzC- C4 | %24
"Dm7" z2 z C"G7" ECEC- |"Cmaj7""A7" C8 |"Dm7""G7" z8 |] %27

